;FLAVOR:UltiGCode
;TIME:9737
;MATERIAL:6209
;MATERIAL2:0

;Layer count: 129
;LAYER:0
M107
G0 F9000 X91.800 Y81.300 Z0.300
;TYPE:SKIRT
G1 F1200 X138.200 Y81.300 E5.56800
G1 X138.200 Y103.700 E8.25600
G1 X123.800 Y103.700 E9.98400
G1 X123.800 Y95.700 E10.94400
G1 X122.200 Y95.700 E11.13600
G1 X122.200 Y129.300 E15.16800
G1 X123.800 Y129.300 E15.36000
G1 X123.800 Y105.300 E18.24000
G1 X138.200 Y105.300 E19.96800
G1 X138.200 Y143.700 E24.57600
G1 X91.800 Y143.700 E30.14400
G1 X91.800 Y121.300 E32.83200
G1 X106.200 Y121.300 E34.56000
G1 X106.200 Y129.300 E35.52000
G1 X107.800 Y129.300 E35.71200
G1 X107.800 Y119.700 E36.86400
G1 X91.800 Y119.700 E38.78400
G1 X91.800 Y105.300 E40.51200
G1 X107.800 Y105.300 E42.43200
G1 X107.800 Y95.700 E43.58400
G1 X106.200 Y95.700 E43.77600
G1 X106.200 Y103.700 E44.73600
G1 X91.800 Y103.700 E46.46400
G1 X91.800 Y81.300 E49.15200
G10
G0 F9000 X95.600 Y85.100
;TYPE:WALL-INNER
G11
G1 F1200 X134.400 Y85.100 E53.80800
G1 X134.400 Y99.900 E55.58400
G1 X127.600 Y99.900 E56.40000
G1 X127.600 Y91.900 E57.36000
G1 X118.400 Y91.900 E58.46400
G1 X118.400 Y133.100 E63.40800
G1 X127.600 Y133.100 E64.51200
G1 X127.600 Y109.100 E67.39200
G1 X134.400 Y109.100 E68.20800
G1 X134.400 Y139.900 E71.90400
G1 X95.600 Y139.900 E76.56000
G1 X95.600 Y125.100 E78.33600
G1 X102.400 Y125.100 E79.15200
G1 X102.400 Y133.100 E80.11200
G1 X111.600 Y133.100 E81.21600
G1 X111.600 Y115.900 E83.28000
G1 X95.600 Y115.900 E85.20000
G1 X95.600 Y109.100 E86.01600
G1 X111.600 Y109.100 E87.93600
G1 X111.600 Y91.900 E90.00000
G1 X102.400 Y91.900 E91.10400
G1 X102.400 Y99.900 E92.06400
G1 X95.600 Y99.900 E92.88000
G1 X95.600 Y85.100 E94.65600
G0 F9000 X95.200 Y84.700
;TYPE:WALL-OUTER
G1 F1200 X134.800 Y84.700 E99.40800
G1 X134.800 Y100.300 E101.28000
G1 X127.200 Y100.300 E102.19200
G1 X127.200 Y92.300 E103.15200
G1 X118.800 Y92.300 E104.16000
G1 X118.800 Y132.700 E109.00800
G1 X127.200 Y132.700 E110.01600
G1 X127.200 Y108.700 E112.89600
G1 X134.800 Y108.700 E113.80800
G1 X134.800 Y140.300 E117.60000
G1 X95.200 Y140.300 E122.35200
G1 X95.200 Y124.700 E124.22400
G1 X102.800 Y124.700 E125.13600
G1 X102.800 Y132.700 E126.09600
G1 X111.200 Y132.700 E127.10400
G1 X111.200 Y116.300 E129.07200
G1 X95.200 Y116.300 E130.99200
G1 X95.200 Y108.700 E131.90400
G1 X111.200 Y108.700 E133.82400
G1 X111.200 Y92.300 E135.79200
G1 X102.800 Y92.300 E136.80000
G1 X102.800 Y100.300 E137.76000
G1 X95.200 Y100.300 E138.67200
G1 X95.200 Y84.700 E140.54400
G0 F9000 X95.739 Y85.274
;TYPE:SKIN
G1 F900 X102.258 Y91.793 E141.65031
G0 F9000 X102.790 Y91.759
G1 F900 X96.271 Y85.240 E142.75662
G0 F9000 X96.836 Y85.240
G1 F900 X103.356 Y91.759 E143.86302
G0 F9000 X103.922 Y91.759
G1 F900 X97.402 Y85.240 E144.96941
G0 F9000 X97.968 Y85.240
G1 F900 X104.487 Y91.759 E146.07572
G0 F9000 X105.053 Y91.759
G1 F900 X98.533 Y85.240 E147.18212
G0 F9000 X99.099 Y85.240
G1 F900 X105.619 Y91.759 E148.28852
G0 F9000 X106.184 Y91.759
G1 F900 X99.665 Y85.240 E149.39483
G0 F9000 X95.739 Y85.839
G1 F900 X102.258 Y92.359 E150.50122
G0 F9000 X102.258 Y92.925
G1 F900 X95.739 Y86.405 E151.60762
G0 F9000 X95.739 Y86.971
G1 F900 X102.258 Y93.490 E152.71393
G0 F9000 X102.258 Y94.056
G1 F900 X95.739 Y87.536 E153.82033
G0 F9000 X95.739 Y88.102
G1 F900 X102.258 Y94.622 E154.92672
G0 F9000 X102.258 Y95.187
G1 F900 X95.739 Y88.668 E156.03303
G0 F9000 X95.739 Y89.234
G1 F900 X102.258 Y95.753 E157.13934
G0 F9000 X102.258 Y96.319
G1 F900 X95.739 Y89.799 E158.24574
G0 F9000 X95.739 Y90.365
G1 F900 X102.258 Y96.884 E159.35205
G0 F9000 X102.258 Y97.450
G1 F900 X95.739 Y90.931 E160.45836
G0 F9000 X95.739 Y91.496
G1 F900 X102.258 Y98.016 E161.56476
G0 F9000 X102.258 Y98.581
G1 F900 X95.739 Y92.062 E162.67107
G0 F9000 X95.739 Y92.628
G1 F900 X102.258 Y99.147 E163.77738
G0 F9000 X102.258 Y99.713
G1 F900 X95.739 Y93.193 E164.88378
G0 F9000 X95.739 Y93.759
G1 F900 X101.739 Y99.759 E165.90201
G0 F9000 X101.173 Y99.759
G1 F900 X95.739 Y94.325 E166.82419
G0 F9000 X95.739 Y94.890
G1 F900 X100.607 Y99.759 E167.65040
G0 F9000 X100.042 Y99.759
G1 F900 X95.739 Y95.456 E168.38064
G0 F9000 X95.739 Y96.022
G1 F900 X99.476 Y99.759 E169.01483
G0 F9000 X98.910 Y99.759
G1 F900 X95.739 Y96.587 E169.55306
G0 F9000 X95.739 Y97.153
G1 F900 X98.345 Y99.759 E169.99531
G0 F9000 X97.779 Y99.759
G1 F900 X95.739 Y97.719 E170.34151
G0 F9000 X95.739 Y98.285
G1 F900 X97.213 Y99.759 E170.59165
G0 F9000 X96.648 Y99.759
G1 F900 X95.739 Y98.850 E170.74592
G0 F9000 X95.739 Y99.416
G1 F900 X96.082 Y99.759 E170.80413
G0 F9000 X102.459 Y91.959
G0 X111.541 Y91.959
G0 X111.541 Y109.041
G0 X95.945 Y109.239
G1 F900 X102.465 Y115.759 E171.91061
G0 F9000 X101.899 Y115.759
G1 F900 X95.740 Y109.599 E172.95591
G0 F9000 X95.740 Y110.165
G1 F900 X101.334 Y115.759 E173.90524
G0 F9000 X100.768 Y115.759
G1 F900 X95.740 Y110.730 E174.75861
G0 F9000 X95.740 Y111.296
G1 F900 X100.202 Y115.759 E175.51592
G0 F9000 X103.031 Y115.759
G1 F900 X96.511 Y109.239 E176.62240
G0 F9000 X97.077 Y109.239
G1 F900 X103.596 Y115.759 E177.72879
G0 F9000 X104.162 Y115.759
G1 F900 X97.642 Y109.239 E178.83527
G0 F9000 X98.208 Y109.239
G1 F900 X104.728 Y115.759 E179.94176
G0 F9000 X105.293 Y115.759
G1 F900 X98.774 Y109.239 E181.04815
G0 F9000 X99.340 Y109.239
G1 F900 X105.859 Y115.759 E182.15455
G0 F9000 X106.425 Y115.759
G1 F900 X99.905 Y109.239 E183.26103
G0 F9000 X95.740 Y111.862
G1 F900 X99.637 Y115.759 E183.92237
G0 F9000 X99.071 Y115.759
G1 F900 X95.740 Y112.427 E184.48774
G0 F9000 X95.740 Y112.993
G1 F900 X98.505 Y115.759 E184.95707
G0 F9000 X97.939 Y115.759
G1 F900 X95.740 Y113.559 E185.33033
G0 F9000 X95.740 Y114.124
G1 F900 X97.374 Y115.759 E185.60772
G0 F9000 X96.808 Y115.759
G1 F900 X95.740 Y114.690 E185.78905
G0 F9000 X95.740 Y115.256
G1 F900 X96.242 Y115.759 E185.87432
G0 F9000 X100.471 Y109.239
G1 F900 X106.990 Y115.759 E186.98072
G0 F9000 X107.556 Y115.759
G1 F900 X101.037 Y109.239 E188.08712
G0 F9000 X101.602 Y109.239
G1 F900 X108.122 Y115.759 E189.19360
G0 F9000 X108.687 Y115.759
G1 F900 X102.168 Y109.239 E190.29999
G0 F9000 X102.734 Y109.239
G1 F900 X109.253 Y115.759 E191.40639
G0 F9000 X109.819 Y115.759
G1 F900 X103.299 Y109.239 E192.51287
G0 F9000 X103.866 Y109.240
G1 F900 X110.385 Y115.759 E193.61918
G0 F9000 X110.950 Y115.759
G1 F900 X104.431 Y109.240 E194.72549
G0 F9000 X104.997 Y109.240
G1 F900 X111.516 Y115.759 E195.83180
G0 F9000 X111.739 Y115.982
G1 F900 X118.260 Y122.502 E196.93837
G0 F9000 X118.260 Y121.937
G1 F900 X105.563 Y109.240 E199.09312
G0 F9000 X106.128 Y109.240
G1 F900 X118.260 Y121.371 E201.15190
G0 F9000 X118.260 Y120.805
G1 F900 X106.694 Y109.240 E203.11463
G0 F9000 X107.260 Y109.240
G1 F900 X118.260 Y120.239 E204.98131
G0 F9000 X118.260 Y123.068
G1 F900 X111.739 Y116.548 E206.08788
G0 F9000 X111.739 Y117.113
G1 F900 X118.260 Y123.634 E207.19453
G0 F9000 X118.260 Y124.199
G1 F900 X111.739 Y117.679 E208.30109
G0 F9000 X111.739 Y118.245
G1 F900 X118.260 Y124.765 E209.40766
G0 F9000 X118.260 Y125.331
G1 F900 X111.739 Y118.810 E210.51431
G0 F9000 X111.739 Y119.376
G1 F900 X118.260 Y125.896 E211.62087
G0 F9000 X118.260 Y126.462
G1 F900 X111.739 Y119.942 E212.72744
G0 F9000 X118.260 Y119.674
G1 F900 X107.826 Y109.240 E214.49815
G0 F9000 X108.391 Y109.240
G1 F900 X118.260 Y119.108 E216.17289
G0 F9000 X118.260 Y118.542
G1 F900 X108.957 Y109.240 E217.75158
G0 F9000 X109.523 Y109.240
G1 F900 X118.260 Y117.977 E219.23429
G0 F9000 X118.260 Y117.411
G1 F900 X110.088 Y109.240 E220.62104
G0 F9000 X110.654 Y109.240
G1 F900 X118.260 Y116.845 E221.91174
G0 F9000 X118.260 Y116.280
G1 F900 X111.220 Y109.240 E223.10647
G0 F9000 X111.739 Y109.193
G1 F900 X118.260 Y115.714 E224.21312
G0 F9000 X118.260 Y115.148
G1 F900 X111.739 Y108.627 E225.31977
G0 F9000 X111.739 Y108.062
G1 F900 X118.260 Y114.583 E226.42642
G0 F9000 X118.260 Y114.017
G1 F900 X111.739 Y107.496 E227.53307
G0 F9000 X111.739 Y106.930
G1 F900 X118.260 Y113.451 E228.63972
G0 F9000 X118.260 Y112.886
G1 F900 X111.739 Y106.365 E229.74637
G0 F9000 X111.739 Y105.799
G1 F900 X118.260 Y112.320 E230.85302
G0 F9000 X118.260 Y111.754
G1 F900 X111.739 Y105.233 E231.95967
G0 F9000 X111.739 Y104.668
G1 F900 X118.260 Y111.189 E233.06632
G0 F9000 X118.260 Y110.623
G1 F900 X111.739 Y104.102 E234.17297
G0 F9000 X111.739 Y103.536
G1 F900 X118.260 Y110.057 E235.27962
G0 F9000 X118.260 Y109.491
G1 F900 X111.739 Y102.971 E236.38619
G0 F9000 X111.739 Y102.405
G1 F900 X118.260 Y108.926 E237.49284
G0 F9000 X118.260 Y108.360
G1 F900 X111.739 Y101.839 E238.59949
G0 F9000 X111.739 Y101.273
G1 F900 X118.260 Y107.794 E239.70614
G0 F9000 X118.260 Y107.229
G1 F900 X111.739 Y100.708 E240.81279
G0 F9000 X111.739 Y100.142
G1 F900 X118.260 Y106.663 E241.91944
G0 F9000 X118.260 Y106.097
G1 F900 X111.739 Y99.576 E243.02609
G0 F9000 X111.739 Y99.011
G1 F900 X118.260 Y105.532 E244.13274
G0 F9000 X118.260 Y104.966
G1 F900 X111.739 Y98.445 E245.23939
G0 F9000 X111.739 Y97.879
G1 F900 X118.260 Y104.400 E246.34604
G0 F9000 X118.260 Y103.835
G1 F900 X111.739 Y97.314 E247.45269
G0 F9000 X111.739 Y96.748
G1 F900 X118.260 Y103.269 E248.55934
G0 F9000 X118.260 Y102.703
G1 F900 X111.739 Y96.182 E249.66599
G0 F9000 X111.739 Y95.617
G1 F900 X118.260 Y102.138 E250.77264
G0 F9000 X118.260 Y101.572
G1 F900 X111.739 Y95.051 E251.87929
G0 F9000 X111.739 Y94.485
G1 F900 X118.260 Y101.006 E252.98594
G0 F9000 X118.260 Y100.440
G1 F900 X111.739 Y93.920 E254.09251
G0 F9000 X111.739 Y93.354
G1 F900 X118.260 Y99.875 E255.19916
G0 F9000 X118.260 Y99.309
G1 F900 X111.739 Y92.788 E256.30581
G0 F9000 X111.739 Y92.222
G1 F900 X118.260 Y98.743 E257.41246
G0 F9000 X118.260 Y98.178
G1 F900 X105.322 Y85.240 E259.60811
G0 F9000 X105.887 Y85.240
G1 F900 X118.260 Y97.612 E261.70779
G0 F9000 X118.260 Y97.046
G1 F900 X106.453 Y85.240 E263.71142
G0 F9000 X107.019 Y85.240
G1 F900 X118.260 Y96.481 E265.61908
G0 F9000 X118.260 Y95.915
G1 F900 X107.584 Y85.240 E267.43078
G0 F9000 X108.150 Y85.240
G1 F900 X118.260 Y95.349 E269.14642
G0 F9000 X118.260 Y94.784
G1 F900 X108.716 Y85.240 E270.76609
G0 F9000 X109.281 Y85.240
G1 F900 X118.260 Y94.218 E272.28979
G0 F9000 X118.260 Y93.652
G1 F900 X109.847 Y85.240 E273.71744
G0 F9000 X110.413 Y85.240
G1 F900 X118.260 Y93.087 E275.04912
G0 F9000 X118.260 Y92.521
G1 F900 X110.978 Y85.240 E276.28483
G0 F9000 X111.544 Y85.240
G1 F900 X118.260 Y91.955 E277.42449
G0 F9000 X118.629 Y91.759
G1 F900 X112.110 Y85.240 E278.53080
G0 F9000 X112.676 Y85.240
G1 F900 X119.195 Y91.759 E279.63711
G0 F9000 X119.761 Y91.759
G1 F900 X113.241 Y85.240 E280.74350
G0 F9000 X113.807 Y85.240
G1 F900 X120.326 Y91.759 E281.84982
G0 F9000 X120.892 Y91.759
G1 F900 X114.373 Y85.240 E282.95613
G0 F9000 X114.938 Y85.240
G1 F900 X121.458 Y91.759 E284.06252
G0 F9000 X122.024 Y91.759
G1 F900 X115.504 Y85.240 E285.16892
G0 F9000 X116.070 Y85.240
G1 F900 X122.589 Y91.759 E286.27523
G0 F9000 X123.155 Y91.759
G1 F900 X116.635 Y85.240 E287.38162
G0 F9000 X117.201 Y85.240
G1 F900 X123.721 Y91.759 E288.48802
G0 F9000 X124.286 Y91.759
G1 F900 X117.767 Y85.240 E289.59433
G0 F9000 X118.332 Y85.240
G1 F900 X124.852 Y91.759 E290.70073
G0 F9000 X125.418 Y91.759
G1 F900 X118.898 Y85.240 E291.80712
G0 F9000 X119.464 Y85.240
G1 F900 X125.983 Y91.759 E292.91343
G0 F9000 X126.549 Y91.759
G1 F900 X120.029 Y85.240 E294.01983
G0 F9000 X120.595 Y85.240
G1 F900 X127.115 Y91.759 E295.12623
G0 F9000 X127.680 Y91.759
G1 F900 X121.161 Y85.240 E296.23254
G0 F9000 X121.727 Y85.240
G1 F900 X134.259 Y97.773 E298.35937
G0 F9000 X134.259 Y98.338
G1 F900 X127.738 Y91.817 E299.46602
G0 F9000 X127.738 Y92.383
G1 F900 X134.259 Y98.904 E300.57267
G0 F9000 X134.259 Y99.470
G1 F900 X127.738 Y92.949 E301.67932
G0 F9000 X127.738 Y93.514
G1 F900 X133.984 Y99.760 E302.73931
G0 F9000 X133.418 Y99.760
G1 F900 X127.738 Y94.080 E303.70323
G0 F9000 X127.738 Y94.646
G1 F900 X132.852 Y99.760 E304.57111
G0 F9000 X132.286 Y99.760
G1 F900 X127.738 Y95.211 E305.34301
G0 F9000 X127.738 Y95.777
G1 F900 X131.721 Y99.760 E306.01895
G0 F9000 X131.155 Y99.760
G1 F900 X127.738 Y96.343 E306.59884
G0 F9000 X127.738 Y96.908
G1 F900 X130.589 Y99.760 E307.08275
G0 F9000 X130.024 Y99.760
G1 F900 X127.738 Y97.474 E307.47070
G0 F9000 X127.738 Y98.040
G1 F900 X129.458 Y99.760 E307.76259
G0 F9000 X128.892 Y99.760
G1 F900 X127.738 Y98.606 E307.95843
G0 F9000 X127.738 Y99.171
G1 F900 X128.327 Y99.760 E308.05839
G0 F9000 X134.259 Y97.207
G1 F900 X122.292 Y85.240 E310.08926
G0 F9000 X122.858 Y85.240
G1 F900 X134.259 Y96.641 E312.02407
G0 F9000 X134.259 Y96.076
G1 F900 X123.424 Y85.240 E313.86292
G0 F9000 X123.989 Y85.240
G1 F900 X134.259 Y95.510 E315.60579
G0 F9000 X134.259 Y94.944
G1 F900 X124.555 Y85.240 E317.25262
G0 F9000 X125.121 Y85.240
G1 F900 X134.259 Y94.378 E318.80339
G0 F9000 X134.259 Y93.813
G1 F900 X125.686 Y85.240 E320.25827
G0 F9000 X126.252 Y85.240
G1 F900 X134.259 Y93.247 E321.61710
G0 F9000 X134.259 Y92.681
G1 F900 X126.818 Y85.240 E322.87988
G0 F9000 X127.383 Y85.240
G1 F900 X134.259 Y92.116 E324.04678
G0 F9000 X134.259 Y91.550
G1 F900 X127.949 Y85.240 E325.11762
G0 F9000 X128.515 Y85.240
G1 F900 X134.259 Y90.984 E326.09241
G0 F9000 X134.259 Y90.419
G1 F900 X129.080 Y85.240 E326.97132
G0 F9000 X129.646 Y85.240
G1 F900 X134.259 Y89.853 E327.75417
G0 F9000 X134.259 Y89.287
G1 F900 X130.212 Y85.240 E328.44097
G0 F9000 X130.777 Y85.240
G1 F900 X134.259 Y88.722 E329.03188
G0 F9000 X134.259 Y88.156
G1 F900 X131.343 Y85.240 E329.52674
G0 F9000 X131.909 Y85.240
G1 F900 X134.259 Y87.590 E329.92555
G0 F9000 X134.259 Y87.025
G1 F900 X132.475 Y85.240 E330.22839
G0 F9000 X133.040 Y85.240
G1 F900 X134.259 Y86.459 E330.43526
G0 F9000 X134.259 Y85.893
G1 F900 X133.606 Y85.240 E330.54608
G0 F9000 X134.172 Y85.240
G1 F900 X134.259 Y85.327 E330.56085
G0 F9000 X111.275 Y91.759
G1 F900 X104.756 Y85.240 E331.66716
G0 F9000 X104.190 Y85.240
G1 F900 X110.710 Y91.759 E332.77355
G0 F9000 X110.144 Y91.759
G1 F900 X103.625 Y85.240 E333.87986
G0 F9000 X103.059 Y85.240
G1 F900 X109.578 Y91.759 E334.98617
G0 F9000 X109.013 Y91.759
G1 F900 X102.493 Y85.240 E336.09257
G0 F9000 X101.928 Y85.240
G1 F900 X108.447 Y91.759 E337.19888
G0 F9000 X107.881 Y91.759
G1 F900 X101.362 Y85.240 E338.30519
G0 F9000 X100.796 Y85.240
G1 F900 X107.316 Y91.759 E339.41159
G0 F9000 X106.750 Y91.759
G1 F900 X100.230 Y85.240 E340.51798
G0 F9000 X134.459 Y85.041
G0 X118.459 Y91.959
G0 X118.459 Y133.041
G0 X127.541 Y133.041
G0 X127.739 Y109.354
G1 F900 X134.259 Y115.875 E341.62455
G0 F9000 X134.259 Y116.440
G1 F900 X127.739 Y109.920 E342.73103
G0 F9000 X127.739 Y110.486
G1 F900 X134.259 Y117.006 E343.83751
G0 F9000 X134.259 Y117.572
G1 F900 X127.739 Y111.051 E344.94408
G0 F9000 X127.739 Y111.617
G1 F900 X134.259 Y118.137 E346.05056
G0 F9000 X134.259 Y118.703
G1 F900 X127.739 Y112.183 E347.15704
G0 F9000 X127.739 Y112.748
G1 F900 X134.259 Y119.269 E348.26360
G0 F9000 X134.259 Y119.834
G1 F900 X127.739 Y113.314 E349.37008
G0 F9000 X127.739 Y113.880
G1 F900 X134.259 Y120.400 E350.47656
G0 F9000 X134.259 Y120.966
G1 F900 X127.739 Y114.445 E351.58313
G0 F9000 X127.739 Y115.011
G1 F900 X134.259 Y121.531 E352.68961
G0 F9000 X134.259 Y122.097
G1 F900 X127.739 Y115.577 E353.79609
G0 F9000 X127.739 Y116.142
G1 F900 X134.259 Y122.663 E354.90266
G0 F9000 X134.259 Y123.228
G1 F900 X127.739 Y116.708 E356.00914
G0 F9000 X127.739 Y117.274
G1 F900 X134.259 Y123.794 E357.11562
G0 F9000 X134.259 Y124.360
G1 F900 X127.739 Y117.840 E358.22210
G0 F9000 X127.739 Y118.405
G1 F900 X134.259 Y124.925 E359.32858
G0 F9000 X134.259 Y125.491
G1 F900 X127.739 Y118.971 E360.43506
G0 F9000 X127.739 Y119.537
G1 F900 X134.259 Y126.057 E361.54154
G0 F9000 X134.259 Y126.623
G1 F900 X127.739 Y120.102 E362.64811
G0 F9000 X127.739 Y120.668
G1 F900 X134.259 Y127.188 E363.75459
G0 F9000 X134.259 Y127.754
G1 F900 X127.739 Y121.234 E364.86107
G0 F9000 X127.739 Y121.799
G1 F900 X134.259 Y128.320 E365.96763
G0 F9000 X134.259 Y128.885
G1 F900 X127.739 Y122.365 E367.07411
G0 F9000 X127.739 Y122.931
G1 F900 X134.259 Y129.451 E368.18060
G0 F9000 X134.259 Y130.017
G1 F900 X127.739 Y123.496 E369.28716
G0 F9000 X127.739 Y124.062
G1 F900 X134.259 Y130.582 E370.39364
G0 F9000 X134.259 Y131.148
